icons/battery-symbolic.svg

<?xml version="1.0" encoding="UTF-8"?>
<svg height="16px" viewBox="0 0 16 16" width="16px" xmlns="http://www.w3.org/2000/svg">
    <path d="m 7 0 c -1 0 -1 1 -1 1 v 1 h -1 s -0.707031 -0.015625 -1.449219 0.355469 c -0.738281 0.371093 -1.550781 1.3125 -1.550781 2.644531 v 8 s -0.015625 0.707031 0.355469 1.449219 c 0.371093 0.738281 1.3125 1.550781 2.644531 1.550781 h 6 s 0.707031 0.015625 1.449219 -0.355469 c 0.738281 -0.371093 1.550781 -1.3125 1.550781 -2.644531 v -8 c 0 -1.332031 -0.8125 -2.273438 -1.550781 -2.644531 c -0.742188 -0.371094 -1.449219 -0.355469 -1.449219 -0.355469 h -1 v -1 c 0 -1 -1 -1 -1 -1 z m -2 4 h 6 c 0.554688 0 1 0.445312 1 1 v 8 c 0 0.554688 -0.445312 1 -1 1 h -6 c -0.554688 0 -1 -0.445312 -1 -1 v -8 c 0 -0.554688 0.445312 -1 1 -1 z m 0 1 v 2 h 6 v -2 z m 0 3 v 2 h 6 v -2 z m 0 3 v 2 h 6 v -2 z m 0 0" fill="#2e3434"/>
</svg>

<svg xmlns="http://www.w3.org/2000/svg" width="16" height="16"><path fill="#2e3434" d="M7 0C6 0 6 1 6 1v1H5s-.707-.016-1.45.355C2.813 2.727 2 3.668 2 5v8s-.016.707.355 1.45C2.727 15.187 3.668 16 5 16h6s.707.016 1.45-.355C13.187 15.273 14 14.332 14 13V5c0-1.332-.813-2.273-1.55-2.645C11.706 1.985 11 2 11 2h-1V1c0-1-1-1-1-1zM5 4h6c.555 0 1 .445 1 1v8c0 .555-.445 1-1 1H5c-.555 0-1-.445-1-1V5c0-.555.445-1 1-1zm0 1v2h6V5zm0 3v2h6V8zm0 3v2h6v-2zm0 0"/></svg>
